X: 152
T: No_85_I_Run_Toward_Ashes_Hill.krn
N: Derived from No_85_I_Run_Toward_Ashes_Hill.krn
%%abc-version 2.0
%%abcx-abcm2ps-target-version 5.9.1 (29 Sep 2008)
%%abc-creator hum2abc beta
%%abcx-conversion-date 2019/03/15 08:37:56
%%humdrum-veritas 2090692992
%%humdrum-veritas-data 2981328898
%%linebreak <none>
%%barnumbers 0
L: 1/8
M: 3/4
K: F clef=bass
F,F, [I:setbarnb 1]| 
CCC2CC ||  
[M:2/4]C2A,/ z/ C | 
A,2G,3/F,/ | 
G,F,F,2 | 
G,2G,2 ]|:  
 [K:Ab] A,2A,2 | 
G,/F,3/ F,3/A,/ | 
G,F,F,2 | 
F,2z2 | 
A,3/G,/ A,3/G,/ | 
F,7/A,/ | 
F,F,F,2 | 
F,2C, z | 
F,2A,/G,3/ | 
A,/G,3/ F,F, | 
F,2C,/ z/ F, | 
F,F,F,2 | 
F,2C,/ z/ F, | 
F,F,F,2 | 
F,4 | 
F,2F,2 :|]  



